X: 21384
T: Kerry, The
R: polka
M: 2/4
K: Gmajor
|:G>A|BD ED|BD E/F/E/D/|G2 A>B|AG ED|
BD ED|B/c/B/D/ ED/E/|G2 A>B|AG:|
|:G>A|Bd Bd/B/|AG ED|G2 A>B|AG EG/A/|
Bd Bc/B/|AG E2|GD/G/ AB|AG:|

